X:1
T:Paddy's Trip to Scotland
R:Reel
M:4/4
L:1/8
%%printtempo 0
Q:200
K:D
|:((3uABc)|\
"D"dA .A/.A/.A (BA)GF| "G"GABd "A"cABc| "D"d2 ed "A"cABc| "D"dfed "A"cABc|
"D"dA .A/.A/.A (BA)GF| "G"GABd "A"cABc| "D"d2 ed "A"cABc| "D"df"A7"ec "D"d2:|
|:(FG)|\
"D"Adfd Adfd| Adfd dcBc| "A"Acec Acec| Acec dcBc|
"D"Adfd Adfd| Adfd dcBf| "A"aA .A/.A/.A (dc)BA|"D"(3Bcd "A7"ec "D"d2:|
